!!!!SEGMENT:pl-kk--kk-i-40--005-004_flori-georg-missa-agnus-dei.krn
!!!id: 16xx:1296
!!!COM: Flori, Georg
!!!OTL: Missa – Agnus Dei
!!!PDT:
!!!SMS-siglum: PL-Kk
!!!SMS-shelfmark: Kk.I.40
!!!NIFC-rismID: 1001154491
!!!URL-scan: http://repozytorium.nifc.pl/skany/pl-kk-nut--i-40
!!!ONB-nifc: UWAGA: części Mszy: 1. Kyrie, 2. Et in terra, 3. Sanctus, 4. Agnus Dei. Skan 0008-0009
!!!SMS-variant:
!!!SMS-altvar:
**kern	**text	**dynam
*I"Baſso Ripieno.	*	*
*I'B rip	*	*
*clefC4	*	*
*k[b-]	*	*
*M2/1	*	*
*met(c|)	*	*
=1-	=1-	=1-
!LO:TX:t=P:problem:oddech/cezura na różnej wysokości:global	!	!
0r	.	.
=2-	=2-	=2-
2rF	.	.
!LO:TX:t=P:problem:kreska pseudotaktowa	!	!
2D/	A-	.
2F/	-gn(us)	.
2G/	De-	.
=3-	=3-	=3-
!LO:TX:t=P:problem:kreska pseudotaktowa	!	!
1D	-i	.
1r	.	.
=4-	=4-	=4-
2r	.	.
*2\right	*	*
!LO:TX:t=P:problem:kreska pseudotaktowa	!	!
*	*ij	*
2d\	A-	.
2c\	-gn(us)	.
!LO:TX:t=P:problem:kreska pseudotaktowa	!	!
2B-\	De-	.
=5-	=5-	=5-
4A,/	-i	.
*	*Xij	*
4F/	qui	.
!LO:TX:t=P:problem:kreska pseudotaktowa	!	!
2G/	tol-	.
2D,/	-lis.	.
!LO:TX:t=P:problem:kreska pseudotaktowa	!	!
2A\	A-	.
=6-	=6-	=6-
2B-\	-gn(us)	.
2d\	De-	.
!LO:TX:t=P:problem:kreska pseudotaktowa	!	!
1G	-i	.
=7-	=7-	=7-
1r	.	.
2r	.	.
!LO:TX:t=P:problem:kreska pseudotaktowa	!	!LO:DY:a:t=f.:rj
2F/	Qui	f
=8-	=8-	=8-
4B-\	tol-	.
4c\	.	.
!LO:TX:t=P:problem:kreska pseudotaktowa	!	!
2d\	.	.
2c\	-lis	.
!LO:TX:t=P:problem:kreska pseudotaktowa	!	!
2d\	pec-	.
=9-	=9-	=9-
4G/	-ca-	.
4G/	-ta	.
!LO:TX:t=P:problem:kreska pseudotaktowa	!	!
2A/	mun-	.
2D,/	-di	.
4d\	mi-	.
4d\	-ſe-	.
=10-	=10-	=10-
4c\	-re-	.
4B-\	-re	.
!LO:TX:t=P:problem:kreska pseudotaktowa	!	!
2A\	no-	.
4G,/	-bis	.
*	*ij	*
2G/	mi-	.
!LO:TX:t=P:problem:kreska pseudotaktowa	!	!
4B-\	-ſe-	.
=11-	=11-	=11-
4F/	-re-	.
4G/	-re	.
2D/	no-	.
!LO:TX:t=P:problem:kreska pseudotaktowa	!	!
1G	-bis	.
*	*Xij	*
!LO:LB:g=original	!	!
=12-	=12-	=12-
1r	.	.
4r	.	.
2G/	mi-	.
!LO:TX:t=P:problem:kreska pseudotaktowa	!	!
4G/	-ſe-	.
=13-	=13-	=13-
4.B-\	-re-	.
8c\	-re	.
!LO:TX:t=P:problem:kreska pseudotaktowa	!	!
2d\	no-	.
2A,/	-bis	.
!LO:TX:t=P:problem:kreska pseudotaktowa	!	!
*	*ij	*
2F/	mi-	.
=14-	=14-	=14-
1.C	-ſe-	.
4G/	-re-	.
4B-\	-re	.
=15-	=15-	=15-
!LO:TX:t=P:problem:kreska pseudotaktowa	!	!
2F/	no-	.
1B-,	-bis	.
*	*Xij	*
2G/	mi-	.
=16-	=16-	=16-
!LO:TX:t=P:problem:kreska pseudotaktowa	!	!
2D/	-ſe-	.
2F/	-re-	.
2G/	-re	.
1D/	no-	.
=17-	=17-	=17-
.	.	.
!LO:N:vis=0	!	!
1G;>	-bis.	.
=18||-	=18||-	=18||-
*M2/1	*	*
*met(c|)	*	*
0r	.	.
=19-	=19-	=19-
!LO:TX:t=P:problem:kreska pseudotaktowa	!	!
1r	.	.
2r	.	.
!LO:TX:t=P:problem:kreska pseudotaktowa	!	!
2D/	Qui	.
=20-	=20-	=20-
1G	tol-	.
2G,/	-lis	.
!LO:TX:t=P:problem:kreska pseudotaktowa	!	!
2G/	pec-	.
=21-	=21-	=21-
2F/	-ca-	.
!LO:TX:t=P:problem:kreska pseudotaktowa	!	!
2F/	-ta	.
1C	mun-	.
=22-	=22-	=22-
!LO:TX:t=P:problem:kreska pseudotaktowa	!	!
1D	-di	.
2rc	.	.
2d\	mi-	.
=23-	=23-	=23-
2c\	-ſe-	.
!LO:TX:t=P:problem:kreska pseudotaktowa	!	!
2d\	-re-	.
1G	-re	.
=24-	=24-	=24-
1A	no-	.
2D,/	-bis	.
1d\	mi-	.
=25-	=25-	=25-
.	.	.
!LO:TX:t=P:problem:kreska pseudotaktowa	!	!
2D/	-ſe-	.
!LO:LB:g=original	!	!
1G	-re-	.
=26-	=26-	=26-
2C,/	-re	.
1c	no-	.
2G/	.	.
=27-	=27-	=27-
!LO:TX:t=P:problem:kreska pseudotaktowa	!	!
1G	-bis	.
0r	.	.
=28-	=28-	=28-
.	.	.
!LO:TX:t=P:problem:kreska pseudotaktowa	!	!
!LO:N:vis=1	!	!
1r	.	.
=29-	=29-	=29-
2rF	.	.
2G/	mi-	.
2c\	.	.
!LO:TX:t=P:problem:kreska pseudotaktowa	!	!
2C/	-se-	.
=30-	=30-	=30-
2.F/	-re-	.
4G/	-re	.
1A	no-	.
=31-	=31-	=31-
!LO:TX:b:Bi:t=Agnus 3tium Ut 1mum	!	!
0D;>	-bis.	.
==	==	==
*-	*-	*-
!!!RDF**kern: > = above
!!!RDF**kern: < = below
!!!ENC: Andrzej Kubiczek
!!!END: 2021-07-04
!!!EED: Antoni Szymański
!!!EST: 2021-07-31
